X: 22261
T: La Main Blanche
R: reel
M: 4/4
K: Fmajor
z2 cc d2 e2|:[M:4/4]"F"f2 AB AGFA|Accd cAFA|"Bb"B2 GB "F" A2 GA|
[M:6/4] "C7"GFEF Gz cc d2 e2|[M:4/4]"F"f2 AB AGFA|Accd cAFA|
"Bb"B2 GB "F"AFGA|1 [M:6/4]"C7"GFEG "F"Fz1 cc d2 e2:|"C7"GFEG "F"Fz|
|:"F"f2cf Acfc|"C7"g2eg cgec|"C7"g2eg cgec|"F"a2 fa cfgf|
"Dm"a2 g2 fe d2|"F"c2Ac FFGA|"Bb"B2 GB "F"A2FA|"C7"GFEG "F"F2 z2:|

